svg/grid.svg

<svg width="480" height="480" viewBox="0 0 480 480" xmlns="http://www.w3.org/2000/svg" ><title>grid</title><path d="M260 220l140 0 0-140-140 0 0 140z m-180 180l140 0 0-140-140 0 0 140z m0-180l140 0 0-140-140 0 0 140z m180 180l140 0 0-140-140 0 0 140z" /></svg>

<svg xmlns="http://www.w3.org/2000/svg" width="480" height="480" viewBox="0 0 480 480"><title>grid</title><path d="M260 220h140V80H260zM80 400h140V260H80zm0-180h140V80H80zm180 180h140V260H260z"/></svg>
